src/assets/seen.svg

<svg width="90" height="82" xmlns="http://www.w3.org/2000/svg"><g fill="#d6d6d6" fill-rule="nonzero"><path d="M88.937 1.152c-1.366-1.373-3.756-1.375-5.127 0L60.393 24.569 50.026 14.198c-1.374-1.376-3.765-1.37-5.127-.004a3.594 3.594 0 0 0-1.067 2.563c0 .97.377 1.883 1.065 2.569l5.091 5.091s6.539 6.315 7.952 7.729c1.372 1.372 3.757 1.372 5.129 0l10.369-10.369 5.13-5.128 10.367-10.37a3.604 3.604 0 0 0 1.064-2.569c0-.968-.378-1.878-1.062-2.558zM36.656 33.607C20.668 33.607 6.81 43.416 0 57.744c6.81 14.328 20.668 24.135 36.656 24.135 15.987 0 29.845-9.807 36.656-24.135-6.811-14.328-20.668-24.137-36.656-24.137zM54.729 69.08c-5.413 3.637-11.662 5.561-18.073 5.561-6.412 0-12.661-1.924-18.074-5.561-4.308-2.894-7.957-6.771-10.698-11.336 2.741-4.565 6.391-8.443 10.697-11.338 5.413-3.637 11.662-5.559 18.074-5.559 6.412 0 12.661 1.921 18.074 5.559 4.308 2.895 7.959 6.772 10.699 11.338-2.74 4.565-6.391 8.443-10.699 11.336z"/><circle cx="36.656" cy="57.744" r="14.907"/></g></svg>

<?xml version="1.0" encoding="UTF-8"?>
<svg width="90px" height="82px" viewBox="0 0 90 82" version="1.1" xmlns="http://www.w3.org/2000/svg" xmlns:xlink="http://www.w3.org/1999/xlink">
    <g stroke="none" stroke-width="1" fill="none" fill-rule="evenodd">
        <g fill="#d6d6d6" fill-rule="nonzero">
            <path d="M88.937,1.152 C87.571,-0.221 85.181,-0.223 83.81,1.152 L60.393,24.569 L50.026,14.198 C48.652,12.822 46.261,12.828 44.899,14.194 C44.211,14.878 43.833,15.788 43.832,16.757 C43.832,17.727 44.209,18.64 44.897,19.326 L49.988,24.417 C49.988,24.417 56.527,30.732 57.94,32.146 C59.312,33.518 61.697,33.518 63.069,32.146 L73.438,21.777 L78.568,16.649 L88.935,6.279 C89.623,5.593 89.999,4.679 89.999,3.71 C89.999,2.742 89.621,1.832 88.937,1.152 Z"></path>
            <path d="M36.656,33.607 C20.668,33.607 6.81,43.416 0,57.744 C6.81,72.072 20.668,81.879 36.656,81.879 C52.643,81.879 66.501,72.072 73.312,57.744 C66.501,43.416 52.644,33.607 36.656,33.607 Z M54.729,69.08 C49.316,72.717 43.067,74.641 36.656,74.641 C30.244,74.641 23.995,72.717 18.582,69.08 C14.274,66.186 10.625,62.309 7.884,57.744 C10.625,53.179 14.275,49.301 18.581,46.406 C23.994,42.769 30.243,40.847 36.655,40.847 C43.067,40.847 49.316,42.768 54.729,46.406 C59.037,49.301 62.688,53.178 65.428,57.744 C62.688,62.309 59.037,66.187 54.729,69.08 Z"></path>
            <circle cx="36.656" cy="57.744" r="14.907"></circle>
        </g>
    </g>
</svg>
